icons/outline/barrier-block-off.svg

<!--
tags: [construction, stop, traffic, barricade, street]
version: "1.62"
unicode: "f0b5"
-->
<svg
  xmlns="http://www.w3.org/2000/svg"
  width="24"
  height="24"
  viewBox="0 0 24 24"
  fill="none"
  stroke="currentColor"
  stroke-width="2"
  stroke-linecap="round"
  stroke-linejoin="round"
>
  <path d="M11 7h8a1 1 0 0 1 1 1v7c0 .27 -.107 .516 -.282 .696m-3.718 .304h-11a1 1 0 0 1 -1 -1v-7a1 1 0 0 1 1 -1h2m0 9v4m.5 -4l4.244 -4.244m2.001 -2.001l2.755 -2.755m-3 9l1.249 -1.249m1.992 -1.992l3.259 -3.259m-16 4l4.752 -4.752m8.248 8.252v3m-12 0h4m6 0h4m-2 -13v-2m-14 -2l18 18" />
</svg>

<!--
tags: [construction, stop, traffic, barricade, street]
version: "1.62"
unicode: "f0b5"
-->
<svg
  xmlns="http://www.w3.org/2000/svg"
  width="24"
  height="24"
  viewBox="0 0 24 24"
  fill="none"
  stroke="currentColor"
  stroke-width="2"
  stroke-linecap="round"
  stroke-linejoin="round"
>
    <path d="M11 7h8a1 1 0 0 1 1 1v7c0 .27 -.107 .516 -.282 .696M16 16h-11a1 1 0 0 1 -1 -1v-7a1 1 0 0 1 1 -1h2M7 16v4M7.5 16l4.244 -4.244M13.745 9.755l2.755 -2.755M13.5 16l1.249 -1.249M16.741 12.759l3.259 -3.259M4 13.5l4.752 -4.752M17 17v3M5 20h4M15 20h4M17 7v-2M3 3l18 18" />
</svg>
